X:1
T:The Buchan Turnpike
M:4/4
L:1/4
K:D
 D| E EE/2-E/2 E/2F/2| A/2B/2 B e e| d B B/2 A3/2| F E D| F| E/2E/2 EE/2-F/2 A|\
 B B e e| d3/2 B/2 d F| A- F E||
